assets/icons/uEA07-award.svg

<svg xmlns="http://www.w3.org/2000/svg" viewBox="0 0 30.22 30.22"><path d="M10.184 17.944c0 1.31-1.063 2.37-2.37 2.37-1.308 0-2.37-1.06-2.37-2.37 0-1.308 1.062-2.37 2.37-2.37 1.305 0 2.37 1.062 2.37 2.37zm.137 3.847l3.52 6.76-2.08-.08-1.132 1.76-2.53-4.86-1.38 4.69-1.45-1.506-2.034.477 2.12-7.197c-1.274-.82-2.12-2.25-2.12-3.88 0-2.54 2.06-4.595 4.597-4.595s4.6 2.053 4.6 4.593c0 1.61-.83 3.03-2.09 3.848zm1.61-4.5l-.98.21c.05.22.07.25.07.48 0 .47-.1.93-.29 1.35l.91.43c.26-.56.397-1.152.397-1.77 0-.3-.034-.394-.096-.682zm-2.61-2.14c.41.22.77.53 1.05.9l.81-.6c-.36-.48-.84-.89-1.37-1.18l-.474.89zm-3.06-1.1l.37.94c.38-.14.77-.22 1.18-.22.067 0 .13 0 .19.01l.06-1.005c-.08-.004-.16-.007-.244-.007-.53 0-1.053.1-1.543.293zm-2.45 2.56l.96.33c.15-.43.4-.84.72-1.18l-.73-.69c-.42.44-.742.98-.94 1.55zm1.24 3.01c-.24-.4-.38-.84-.43-1.31l-1 .11c.066.618.26 1.19.577 1.72l.864-.51zm.42 1.79l-.03.05.02.01.02-.05zm1.82-.27c-.46-.07-.89-.25-1.28-.51l-.53.78.607.41c.33.15.68.26 1.044.32l.165-.99zm3.47-3.16c0-1.62-1.32-2.94-2.94-2.94s-2.95 1.318-2.95 2.94c0 1.628 1.318 2.945 2.944 2.945s2.945-1.317 2.945-2.942zm-1.82 4.07c.595-.163 1.13-.45 1.606-.85l-.65-.765c-.36.303-.77.52-1.223.646l.27.97zm10.68 2.015l.51.36c.01-.01.78-1.074 2.07-.97l.057-.623c-1.635-.143-2.598 1.18-2.635 1.234zm3.68-1.112l-.62-.077-.08.635.623.08.08-.633zM7.14 0v12.696c.218-.042.443-.065.673-.065.2 0 .394.02.582.06V1.26H25.75V25.3H12.853l.695 1.255H27V0H7.142zm5.75 3.136V4.39h8.36V3.137h-8.36zm-2.56 3.948H23.4v-.707H10.33v.707zm0 2.117H23.4v-.7H10.33v.71zm0 2.17H23.4v-.7H10.33v.71zm0 2.21H23.4v-.71H10.33v.71zm11.995 8.21c-.045-.03-.092-.06-.133-.08-.1.05-.207.09-.33.12l-.88.7c-.196.156-.442.35-.665.35-.09 0-.176-.032-.254-.107-.13-.127-.253-.25.176-.926-.92-.123-1.42-.35-1.63-.72-.22-.39-.03-.783.1-1.07.04-.09.1-.22.1-.277-.02.01-.12-.038-.385-.06-.183-.012-.42-.003-.494.126-.223.38.346 1.56.798 2.24l-.55.37c-.224-.34-1.32-2.073-.815-2.94.136-.235.443-.5 1.115-.45.33.025.736.094.91.396.176.3.03.614-.09.87-.08.18-.17.38-.12.474.037.06.228.27 1.21.395.097.014.185.02.27.03l.032-.046c-.174-.293-.42-.81-.24-1.21.08-.17.27-.385.7-.42.57-.05 1.14.382 1.398.81.177.3.218.61.114.876.01.01.016.01.02.02l.25.16-.37.55-.24-.16zm-.266-.9c-.02-.08-.06-.15-.08-.19-.17-.27-.5-.49-.74-.49h-.03c-.12.012-.16.04-.16.04-.05.084.09.456.31.755l.142.2-.023.028c.024 0 .054-.005.075-.01l.44-.345.044.026z" fill="#010002"/></svg>

<?xml version="1.0" encoding="iso-8859-1"?>
<!-- Generator: Adobe Illustrator 18.1.1, SVG Export Plug-In . SVG Version: 6.00 Build 0)  -->
<svg version="1.1" id="Capa_1" xmlns="http://www.w3.org/2000/svg" xmlns:xlink="http://www.w3.org/1999/xlink" x="0px" y="0px"
	 viewBox="0 0 30.22 30.22" style="enable-background:new 0 0 30.22 30.22;" xml:space="preserve">
<g>
	<path style="fill:#010002;" d="M10.184,17.944c0,1.31-1.063,2.37-2.369,2.37c-1.309,0-2.372-1.061-2.372-2.37
		c0-1.308,1.063-2.369,2.372-2.369C9.119,15.574,10.184,16.636,10.184,17.944z M10.321,21.791l3.513,6.753l-2.087-0.08l-1.136,1.756
		l-2.529-4.859l-1.381,4.681l-1.449-1.506l-2.035,0.477l2.122-7.197c-1.276-0.818-2.122-2.245-2.122-3.873
		c0-2.539,2.058-4.596,4.596-4.596s4.597,2.056,4.597,4.596C12.41,19.555,11.578,20.972,10.321,21.791z M11.924,17.289l-0.983,0.209
		c0.047,0.221,0.071,0.246,0.071,0.474c0,0.47-0.101,0.923-0.297,1.348l0.912,0.425c0.259-0.558,0.394-1.155,0.394-1.772
		C12.021,17.674,11.986,17.577,11.924,17.289z M9.318,15.144c0.405,0.217,0.769,0.527,1.048,0.9l0.804-0.607
		c-0.366-0.484-0.842-0.894-1.376-1.181L9.318,15.144z M6.257,14.048l0.368,0.938C7,14.839,7.394,14.763,7.801,14.763
		c0.062,0,0.126,0.002,0.188,0.006l0.059-1.007c-0.083-0.004-0.163-0.007-0.247-0.007C7.27,13.755,6.747,13.854,6.257,14.048z
		 M3.81,16.612l0.952,0.324c0.149-0.436,0.396-0.844,0.718-1.179l-0.729-0.695C4.33,15.502,4.005,16.039,3.81,16.612z M5.048,19.62
		c-0.242-0.403-0.387-0.844-0.435-1.31L3.61,18.414c0.063,0.614,0.258,1.191,0.574,1.722L5.048,19.62z M5.461,21.411l-0.034,0.046
		c0.007,0.002,0.012,0.005,0.017,0.008L5.461,21.411z M7.277,21.138c-0.463-0.075-0.893-0.25-1.281-0.512l-0.531,0.776l0.604,0.406
		c0.332,0.15,0.679,0.261,1.044,0.322L7.277,21.138z M10.747,17.973c0-1.626-1.319-2.945-2.945-2.945s-2.943,1.319-2.943,2.945
		c0,1.625,1.317,2.942,2.943,2.942S10.747,19.598,10.747,17.973z M8.924,22.036c0.593-0.164,1.131-0.45,1.604-0.85L9.877,20.42
		c-0.359,0.303-0.769,0.521-1.222,0.646L8.924,22.036z M19.609,24.054l0.51,0.361c0.008-0.012,0.781-1.076,2.07-0.97l0.055-0.625
		C20.609,22.677,19.646,23.999,19.609,24.054z M23.287,22.941l-0.623-0.079l-0.08,0.634l0.623,0.079L23.287,22.941z M7.141,0v12.696
		c0.217-0.042,0.442-0.065,0.672-0.065c0.199,0,0.394,0.02,0.582,0.053V1.256h17.354v24.042H12.854l0.695,1.255h13.453V0H7.141z
		 M12.889,3.136v1.255h8.362V3.136H12.889z M10.331,7.084h13.07V6.377h-13.07V7.084z M10.331,9.201h13.07V8.492h-13.07V9.201z
		 M10.331,11.371h13.07v-0.706h-13.07V11.371z M10.331,13.579h13.07v-0.708h-13.07V13.579z M22.325,21.789
		c-0.045-0.032-0.092-0.061-0.133-0.086c-0.099,0.047-0.207,0.086-0.33,0.115l-0.881,0.695c-0.195,0.156-0.441,0.351-0.664,0.351
		c-0.09,0-0.176-0.033-0.254-0.108c-0.129-0.128-0.253-0.25,0.176-0.927c-0.912-0.123-1.414-0.349-1.621-0.721
		c-0.213-0.389-0.032-0.782,0.101-1.07c0.037-0.088,0.097-0.217,0.106-0.276c-0.022,0.011-0.121-0.035-0.383-0.056
		c-0.183-0.013-0.42-0.004-0.494,0.125c-0.224,0.378,0.345,1.56,0.797,2.24l-0.549,0.366c-0.227-0.34-1.324-2.072-0.818-2.941
		c0.138-0.233,0.445-0.499,1.117-0.447c0.33,0.025,0.734,0.094,0.91,0.396c0.174,0.298,0.027,0.613-0.092,0.869
		c-0.08,0.179-0.172,0.379-0.119,0.474c0.035,0.062,0.226,0.274,1.211,0.398c0.094,0.013,0.182,0.022,0.266,0.028
		c0.01-0.014,0.02-0.029,0.033-0.045c-0.178-0.294-0.422-0.812-0.24-1.208c0.08-0.174,0.266-0.388,0.697-0.424
		c0.568-0.05,1.138,0.383,1.392,0.811c0.177,0.301,0.218,0.61,0.114,0.876c0.008,0.005,0.015,0.011,0.023,0.019l0.25,0.162
		l-0.369,0.55L22.325,21.789z M22.059,20.883c-0.011-0.079-0.052-0.157-0.072-0.196c-0.164-0.271-0.502-0.495-0.74-0.495
		c-0.012,0-0.02,0-0.029,0.001c-0.121,0.012-0.157,0.04-0.157,0.04c-0.046,0.084,0.091,0.456,0.313,0.755l0.145,0.202l-0.021,0.026
		c0.025-0.003,0.055-0.007,0.076-0.012l0.438-0.345L22.059,20.883z"/>
</g>
<g>
</g>
<g>
</g>
<g>
</g>
<g>
</g>
<g>
</g>
<g>
</g>
<g>
</g>
<g>
</g>
<g>
</g>
<g>
</g>
<g>
</g>
<g>
</g>
<g>
</g>
<g>
</g>
<g>
</g>
</svg>
